assets/img/paul.svg

<svg xmlns="http://www.w3.org/2000/svg" style="margin:auto;background:0 0;display:block;shape-rendering:auto" width="178" height="75" preserveAspectRatio="xMidYMid"><style>@keyframes breath-2e1569fd-c2d8-4848-bed3-237d9330fc4e{0%{animation-timing-function:cubic-bezier(.9647,.2413,-.0705,.7911);transform:scale(.9099999999999999)}51%{animation-timing-function:cubic-bezier(.9226,.2631,-.0308,.7628);transform:scale(1.02994)}to{transform:scale(.9099999999999999)}}</style><g style="transform-origin:89px 37.5px;transform:scale(1.025)"><g style="transform:scale(.91);transform-origin:-60px -5.25879px;animation:.641026s linear -.317308s infinite normal forwards running breath-2e1569fd-c2d8-4848-bed3-237d9330fc4e"><path d="M20.56-33.52q.32 0 1.2.64.88.64 1.84.64h.08q2.72 0 4.32-2.16t1.76-4.32l.24-2.16q0-3.04-.92-5.24t-2.12-3.28q-1.2-1.08-2.8-1.64-2-.8-4.2-.8t-3.56.44q-1.36.44-1.52.84l-.08.48q-.72 10.8-.72 19.32t.28 14.68q.28 6.16.56 9.48.28 3.32.28 3.64 0 2-3.52 3.2-3.52 1.2-6.96 1.2-1.6 0-1.6-.8 0-.24.24-1.12Q4.88-4 4.88-33.2q0-17.2-2.32-19.68-.48-.48-.48-1t1.16-1.16q1.16-.64 6.52-1.48 5.36-.84 11.36-.84 9.44 0 14.2 5.12t4.76 12.2q0 7.08-3.88 12.28-3.88 5.2-10.12 5.2-2 0-4-.72-4-1.44-4-6 0-.96.64-2.6.64-1.64 1.84-1.64" fill="#2477ff" stroke-width="none" transform="translate(7.92 60.201)" style="fill:#2477ff" class="path"/></g><g style="transform:scale(.91);transform-origin:-18.2px -5.57879px;animation:.641026s linear -.211538s infinite normal forwards running breath-2e1569fd-c2d8-4848-bed3-237d9330fc4e"><path d="M62.8-45.84Q56.48-37.92 53.68-30h.08q11.12 0 12.76.04 1.64.04 1.8-.12.16-.16.24-.4-1.36-9.84-2.16-13.4-.8-3.56-1.6-3.56t-2 1.6zM55.68-8.16l1.76-.32q.8 0 .8.88 0 2.8-1.12 4.72t-2.8 2.72Q51.6 1.2 49.68 1.2q-3.68 0-5.52-2.76-1.84-2.76-1.84-8.32 0-5.56 3.04-14.44h-4.64q-.88 0-.88-.88t1.36-2.84Q42.56-30 44.08-30h3.6q5.68-12.64 13.36-21.84 2-2.4 4.92-4.48 2.92-2.08 4.52-2.08 1.6 0 2.4 1.44 2.08 3.36 4.88 24.56.96 9.12 3.32 18.84t4.36 11.32q.48.32.48.8 0 1.2-3.4 2.24-3.4 1.04-5.2 1.04-1.8 0-2.76-.44-.96-.44-1.2-.92-1.44-3.12-2.88-14.88L70-18.16q-.32-3.76-.64-5.68l-.56-.4-16.72-.08q-.96 4.08-.96 7.12t.2 4.44q.2 1.4 1.32 3t3.04 1.6" fill="#2477ff" stroke-width="none" transform="translate(7.92 60.201)" style="fill:#ff3220" class="path"/></g><g style="transform:scale(.91);transform-origin:26.28px -5.13879px;animation:.641026s linear -.105769s infinite normal forwards running breath-2e1569fd-c2d8-4848-bed3-237d9330fc4e"><path d="m89.52-13.92.56-22.48q0-5.2-.24-8.56-.4-6-1.36-7.52l-.32-.48q-.4-.32-.4-.8 0-1.52 4-2.44 4-.92 6.72-.92 2.72 0 2.72 1.52l-.08.88Q100-46.8 99.76-35.96q-.24 10.84-.24 14.2 0 3.36.24 5.6.24 2.24.28 2.6.04.36.4 1.36.36 1 .92 1.8 1.44 1.92 4.08 1.92t4.44-1.2q1.8-1.2 2.68-2.96 1.84-3.76 2.24-6.48l.16-1.2q.4-5.68.4-13.44t-.08-10.16q-.08-2.4-.24-3.96-.16-1.56-.28-2.76-.12-1.2-.2-1.88-.08-.68-.08-.76 0-.88.88-1.44 1.36-1.04 4.2-1.76t5.08-.72q2.24 0 2.24 1.04 0 .16-.4 2.64-1.76 10.88-1.76 30.24 0 14.32 1.92 20.4.32.96.32 1.32 0 .36-.64.92-2.4 1.84-6.36 1.84-3.96 0-4.28-2-.4-1.04-.48-4.16l-.08-.96q0-.72-.32-.72l-.88.56q-1.52 2.56-3.52 4.28-2 1.72-3.84 2.36-2.64.96-5.16.96T96.36.2q-2.52-1.32-3.76-3.08-1.24-1.76-2.04-4.16-1.04-3.44-1.04-6.88" fill="#2477ff" stroke-width="none" transform="translate(7.92 60.201)" style="fill:#ffbc00" class="path"/></g><g style="transform:scale(.91);transform-origin:66.28px -5.97879px;animation:.641026s linear 0s infinite normal forwards running breath-2e1569fd-c2d8-4848-bed3-237d9330fc4e"><path d="m153.76-.08-4.56-.08h-1.92l-14.56.72q-1.2 0-1.2-.8 0-.24.24-1.12.8-1.84 1.16-11.68.36-9.84.36-17.96 0-8.12-.32-13.16-.48-7.6-1.6-9.12-.88-1.12-.88-1.44 0-1.28 4.32-2.24 4.32-.96 6.2-.96t2.36.2q.48.2.48.84 0 .64-.32 4.08-.8 10.16-.8 23.64t.64 21.56q0 .88 1.52 1.52t3.76.64q7.84 0 7.84-12.08 0-3.36-.36-4.16-.36-.8-.36-1.04 0-.8 1.12-.8.88 0 2.36.88t2.44 2.2q.96 1.32 1.76 4.16t.8 6.68q0 9.52-2.32 9.52h-8.16" fill="#2477ff" stroke-width="none" transform="translate(7.92 60.201)" style="fill:#00e677" class="path"/></g></g></svg>

<?xml version="1.0" encoding="utf-8"?>
<svg xmlns="http://www.w3.org/2000/svg" style="margin: auto; background: none; display: block; shape-rendering: auto;" width="178" height="75" preserveAspectRatio="xMidYMid">
<style type="text/css">
  text {
    text-anchor: middle; font-size: 82px; opacity: 0;
  }
</style>
<g style="transform-origin: 89px 37.5px; transform: scale(1.025);">
<g transform="translate(89,37.5)">
  <g transform="translate(0,0)"><g class="path" style="transform: scale(0.91); transform-origin: -60px -5.25879px; animation: 0.641026s linear -0.317308s infinite normal forwards running breath-2e1569fd-c2d8-4848-bed3-237d9330fc4e;"><path d="M20.56-33.52L20.56-33.52L20.56-33.52Q20.88-33.52 21.76-32.88L21.76-32.88L21.76-32.88Q22.64-32.24 23.60-32.24L23.60-32.24L23.68-32.24L23.68-32.24Q26.40-32.24 28-34.40L28-34.40L28-34.40Q29.60-36.56 29.76-38.72L29.76-38.72L30-40.88L30-40.88Q30-43.92 29.08-46.12L29.08-46.12L29.08-46.12Q28.16-48.32 26.96-49.40L26.96-49.40L26.96-49.40Q25.76-50.48 24.16-51.04L24.16-51.04L24.16-51.04Q22.16-51.84 19.96-51.84L19.96-51.84L19.96-51.84Q17.76-51.84 16.40-51.40L16.40-51.40L16.40-51.40Q15.04-50.96 14.88-50.56L14.88-50.56L14.80-50.08L14.80-50.08Q14.08-39.28 14.08-30.76L14.08-30.76L14.08-30.76Q14.08-22.24 14.36-16.08L14.36-16.08L14.36-16.08Q14.64-9.92 14.92-6.60L14.92-6.60L14.92-6.60Q15.20-3.28 15.20-2.96L15.20-2.96L15.20-2.96Q15.20-0.96 11.68 0.24L11.68 0.24L11.68 0.24Q8.16 1.44 4.72 1.44L4.72 1.44L4.72 1.44Q3.12 1.44 3.12 0.64L3.12 0.64L3.12 0.64Q3.12 0.40 3.36-0.48L3.36-0.48L3.36-0.48Q4.88-4 4.88-33.20L4.88-33.20L4.88-33.20Q4.88-50.40 2.56-52.88L2.56-52.88L2.56-52.88Q2.08-53.36 2.08-53.88L2.08-53.88L2.08-53.88Q2.08-54.40 3.24-55.04L3.24-55.04L3.24-55.04Q4.40-55.68 9.76-56.52L9.76-56.52L9.76-56.52Q15.12-57.36 21.12-57.36L21.12-57.36L21.12-57.36Q30.56-57.36 35.32-52.24L35.32-52.24L35.32-52.24Q40.08-47.12 40.08-40.04L40.08-40.04L40.08-40.04Q40.08-32.96 36.20-27.76L36.20-27.76L36.20-27.76Q32.32-22.56 26.08-22.56L26.08-22.56L26.08-22.56Q24.08-22.56 22.08-23.28L22.08-23.28L22.08-23.28Q18.08-24.72 18.08-29.28L18.08-29.28L18.08-29.28Q18.08-30.24 18.72-31.88L18.72-31.88L18.72-31.88Q19.36-33.52 20.56-33.52" fill="#2477ff" stroke="none" stroke-width="none" transform="translate(-81.07998657226562,22.701205711364747)" style="fill: rgb(36, 119, 255);"></path></g><g class="path" style="transform: scale(0.91); transform-origin: -18.2px -5.57879px; animation: 0.641026s linear -0.211538s infinite normal forwards running breath-2e1569fd-c2d8-4848-bed3-237d9330fc4e;"><path d="M62.80-45.84L62.80-45.84L62.80-45.84Q56.48-37.92 53.68-30L53.68-30L53.76-30L53.76-30Q64.88-30 66.52-29.96L66.52-29.96L66.52-29.96Q68.16-29.92 68.32-30.08L68.32-30.08L68.32-30.08Q68.48-30.24 68.56-30.48L68.56-30.48L68.56-30.48Q67.20-40.32 66.40-43.88L66.40-43.88L66.40-43.88Q65.60-47.44 64.80-47.44L64.80-47.44L64.80-47.44Q64-47.44 62.80-45.84zM55.68-8.16L55.68-8.16L57.44-8.48L57.44-8.48Q58.24-8.48 58.24-7.60L58.24-7.60L58.24-7.60Q58.24-4.80 57.12-2.88L57.12-2.88L57.12-2.88Q56-0.96 54.32-0.16L54.32-0.16L54.32-0.16Q51.60 1.20 49.68 1.20L49.68 1.20L49.68 1.20Q46 1.20 44.16-1.56L44.16-1.56L44.16-1.56Q42.32-4.32 42.32-9.88L42.32-9.88L42.32-9.88Q42.32-15.44 45.36-24.32L45.36-24.32L40.72-24.32L40.72-24.32Q39.84-24.32 39.84-25.20L39.84-25.20L39.84-25.20Q39.84-26.08 41.20-28.04L41.20-28.04L41.20-28.04Q42.56-30 44.08-30L44.08-30L47.68-30L47.68-30Q53.36-42.64 61.04-51.84L61.04-51.84L61.04-51.84Q63.04-54.24 65.96-56.32L65.96-56.32L65.96-56.32Q68.88-58.40 70.48-58.40L70.48-58.40L70.48-58.40Q72.08-58.40 72.88-56.96L72.88-56.96L72.88-56.96Q74.96-53.60 77.76-32.40L77.76-32.40L77.76-32.40Q78.72-23.28 81.08-13.56L81.08-13.56L81.08-13.56Q83.44-3.84 85.44-2.24L85.44-2.24L85.44-2.24Q85.92-1.92 85.92-1.44L85.92-1.44L85.92-1.44Q85.92-0.24 82.52 0.80L82.52 0.80L82.52 0.80Q79.12 1.84 77.32 1.84L77.32 1.84L77.32 1.84Q75.52 1.84 74.56 1.40L74.56 1.40L74.56 1.40Q73.60 0.96 73.36 0.48L73.36 0.48L73.36 0.48Q71.92-2.64 70.48-14.40L70.48-14.40L70-18.16L70-18.16Q69.68-21.92 69.36-23.84L69.36-23.84L68.80-24.24L52.08-24.32L52.08-24.32Q51.12-20.24 51.12-17.20L51.12-17.20L51.12-17.20Q51.12-14.16 51.32-12.76L51.32-12.76L51.32-12.76Q51.52-11.36 52.64-9.76L52.64-9.76L52.64-9.76Q53.76-8.16 55.68-8.16" fill="#2477ff" stroke="none" stroke-width="none" transform="translate(-81.07998657226562,22.701205711364747)" style="fill: rgb(255, 50, 32);"></path></g><g class="path" style="transform: scale(0.91); transform-origin: 26.28px -5.13879px; animation: 0.641026s linear -0.105769s infinite normal forwards running breath-2e1569fd-c2d8-4848-bed3-237d9330fc4e;"><path d="M89.52-13.92L89.52-13.92L90.08-36.40L90.08-36.40Q90.08-41.60 89.84-44.96L89.84-44.96L89.84-44.96Q89.44-50.96 88.48-52.48L88.48-52.48L88.16-52.96L88.16-52.96Q87.76-53.28 87.76-53.76L87.76-53.76L87.76-53.76Q87.76-55.28 91.76-56.20L91.76-56.20L91.76-56.20Q95.76-57.12 98.48-57.12L98.48-57.12L98.48-57.12Q101.20-57.12 101.20-55.60L101.20-55.60L101.12-54.72L101.12-54.72Q100-46.80 99.76-35.96L99.76-35.96L99.76-35.96Q99.52-25.12 99.52-21.76L99.52-21.76L99.52-21.76Q99.52-18.40 99.76-16.16L99.76-16.16L99.76-16.16Q100-13.92 100.04-13.56L100.04-13.56L100.04-13.56Q100.08-13.20 100.44-12.20L100.44-12.20L100.44-12.20Q100.80-11.20 101.36-10.40L101.36-10.40L101.36-10.40Q102.80-8.48 105.44-8.48L105.44-8.48L105.44-8.48Q108.08-8.48 109.88-9.68L109.88-9.68L109.88-9.68Q111.68-10.88 112.56-12.64L112.56-12.64L112.56-12.64Q114.40-16.40 114.80-19.12L114.80-19.12L114.96-20.32L114.96-20.32Q115.36-26 115.36-33.76L115.36-33.76L115.36-33.76Q115.36-41.52 115.28-43.92L115.28-43.92L115.28-43.92Q115.20-46.32 115.04-47.88L115.04-47.88L115.04-47.88Q114.88-49.44 114.76-50.64L114.76-50.64L114.76-50.64Q114.64-51.84 114.56-52.52L114.56-52.52L114.56-52.52Q114.48-53.20 114.48-53.28L114.48-53.28L114.48-53.28Q114.48-54.16 115.36-54.72L115.36-54.72L115.36-54.72Q116.72-55.76 119.56-56.48L119.56-56.48L119.56-56.48Q122.40-57.20 124.64-57.20L124.64-57.20L124.64-57.20Q126.88-57.20 126.88-56.16L126.88-56.16L126.88-56.16Q126.88-56 126.48-53.52L126.48-53.52L126.48-53.52Q124.72-42.64 124.72-23.28L124.72-23.28L124.72-23.28Q124.72-8.96 126.64-2.88L126.64-2.88L126.64-2.88Q126.96-1.92 126.96-1.56L126.96-1.56L126.96-1.56Q126.96-1.20 126.32-0.64L126.32-0.64L126.32-0.64Q123.92 1.20 119.96 1.20L119.96 1.20L119.96 1.20Q116 1.20 115.68-0.80L115.68-0.80L115.68-0.80Q115.28-1.84 115.20-4.96L115.20-4.96L115.12-5.92L115.12-5.92Q115.12-6.64 114.80-6.64L114.80-6.64L113.92-6.08L113.92-6.08Q112.40-3.52 110.40-1.80L110.40-1.80L110.40-1.80Q108.40-0.08 106.56 0.56L106.56 0.56L106.56 0.56Q103.92 1.52 101.40 1.52L101.40 1.52L101.40 1.52Q98.88 1.52 96.36 0.20L96.36 0.20L96.36 0.20Q93.84-1.12 92.60-2.88L92.60-2.88L92.60-2.88Q91.36-4.64 90.56-7.04L90.56-7.04L90.56-7.04Q89.52-10.48 89.52-13.92" fill="#2477ff" stroke="none" stroke-width="none" transform="translate(-81.07998657226562,22.701205711364747)" style="fill: rgb(255, 188, 0);"></path></g><g class="path" style="transform: scale(0.91); transform-origin: 66.28px -5.97879px; animation: 0.641026s linear 0s infinite normal forwards running breath-2e1569fd-c2d8-4848-bed3-237d9330fc4e;"><path d="M153.76-0.08L153.76-0.08L149.20-0.16L149.20-0.16Q148.24-0.16 147.28-0.16L147.28-0.16L132.72 0.56L132.72 0.56Q131.52 0.56 131.52-0.24L131.52-0.24L131.52-0.24Q131.52-0.48 131.76-1.36L131.76-1.36L131.76-1.36Q132.56-3.20 132.92-13.04L132.92-13.04L132.92-13.04Q133.28-22.88 133.28-31L133.28-31L133.28-31Q133.28-39.12 132.96-44.16L132.96-44.16L132.96-44.16Q132.48-51.76 131.36-53.28L131.36-53.28L131.36-53.28Q130.48-54.40 130.48-54.72L130.48-54.72L130.48-54.72Q130.48-56 134.80-56.96L134.80-56.96L134.80-56.96Q139.12-57.92 141-57.92L141-57.92L141-57.92Q142.88-57.92 143.36-57.72L143.36-57.72L143.36-57.72Q143.84-57.52 143.84-56.88L143.84-56.88L143.84-56.88Q143.84-56.24 143.52-52.80L143.52-52.80L143.52-52.80Q142.72-42.64 142.72-29.16L142.72-29.16L142.72-29.16Q142.72-15.68 143.36-7.60L143.36-7.60L143.36-7.60Q143.36-6.72 144.88-6.08L144.88-6.08L144.88-6.08Q146.40-5.44 148.64-5.44L148.64-5.44L148.64-5.44Q156.48-5.44 156.48-17.52L156.48-17.52L156.48-17.52Q156.48-20.88 156.12-21.68L156.12-21.68L156.12-21.68Q155.76-22.48 155.76-22.72L155.76-22.72L155.76-22.72Q155.76-23.52 156.88-23.52L156.88-23.52L156.88-23.52Q157.76-23.52 159.24-22.64L159.24-22.64L159.24-22.64Q160.72-21.76 161.68-20.44L161.68-20.44L161.68-20.44Q162.64-19.12 163.44-16.28L163.44-16.28L163.44-16.28Q164.24-13.44 164.24-9.60L164.24-9.60L164.24-9.60Q164.24-0.08 161.92-0.08L161.92-0.08L161.92-0.08Q157.84-0.08 153.76-0.08" fill="#2477ff" stroke="none" stroke-width="none" transform="translate(-81.07998657226562,22.701205711364747)" style="fill: rgb(0, 230, 119);"></path></g></g>
</g>
</g>
<style id="breath-2e1569fd-c2d8-4848-bed3-237d9330fc4e" data-anikit="">@keyframes breath-2e1569fd-c2d8-4848-bed3-237d9330fc4e
{
  0% {
    animation-timing-function: cubic-bezier(0.9647,0.2413,-0.0705,0.7911);
    transform: scale(0.9099999999999999);
  }
  51% {
    animation-timing-function: cubic-bezier(0.9226,0.2631,-0.0308,0.7628);
    transform: scale(1.02994);
  }
  100% {
    transform: scale(0.9099999999999999);
  }
}</style></svg>
